packages/wallets/icons/blocto.svg

<svg fill="none" height="24" viewBox="0 0 24 24" width="24" xmlns="http://www.w3.org/2000/svg"><g clip-rule="evenodd" fill-rule="evenodd"><path d="m19.4838 15.249c.2769 0 .5048.2099.5325.4788l.0022.0429-.0043.1142c-.335 3.9833-3.7904 7.1151-8.0037 7.1151-4.1706 0-7.59863-3.0687-7.99269-6.9946l-.01638-.1811-.00106-.0532.00178-.0398c.02598-.2706.25487-.4823.53289-.4823z" fill="#afd8f7"/><path d="m4.30009 1c3.78755 0 6.82581 2.90911 6.82581 6.50277v6.35343c-.0004.2917-.2392.5284-.534.5288l-6.05758.0032c-.29511.0007-.53432-.2361-.53432-.5278l.00036-12.56375c0-.15149.11426-.27622.26199-.29418z" fill="#182a71"/><path d="m19.6921 12.2383.0388.1283-.0288-.0846c.1616.4534.2666.7769.3153 1.3413.0335.3879-.257.7289-.6485.762l-.0303.0022-3.0809.0007c-2.1063 0-3.8204-1.4741-3.8752-3.5423l-.0014-.1021v-3.4658c0-.20153.1694-.36959.3741-.36007 3.3003.15466 5.9978 2.34151 6.9369 5.32037z" fill="#3485c4"/></g></svg>

<svg width="24" height="24" viewBox="0 0 24 24" fill="none" xmlns="http://www.w3.org/2000/svg">
<path fill-rule="evenodd" clip-rule="evenodd" d="M19.4838 15.249C19.7607 15.249 19.9886 15.4589 20.0163 15.7278L20.0185 15.7707L20.0142 15.8849C19.6792 19.8682 16.2238 23 12.0105 23C7.8399 23 4.41187 19.9313 4.01781 16.0054L4.00143 15.8243L4.00037 15.7711L4.00215 15.7313C4.02813 15.4607 4.25702 15.249 4.53504 15.249H19.4838Z" fill="#AFD8F7"/>
<path fill-rule="evenodd" clip-rule="evenodd" d="M4.30009 1C8.08764 1 11.1259 3.90911 11.1259 7.50277V13.8562C11.1255 14.1479 10.8867 14.3846 10.5919 14.385L4.53432 14.3882C4.23921 14.3889 4 14.1521 4 13.8604L4.00036 1.29665C4.00036 1.14516 4.11462 1.02043 4.26235 1.00247L4.30009 1Z" fill="#182A71"/>
<path fill-rule="evenodd" clip-rule="evenodd" d="M19.6921 12.2383L19.7309 12.3666L19.7021 12.282C19.8637 12.7354 19.9687 13.0589 20.0174 13.6233C20.0509 14.0112 19.7604 14.3522 19.3689 14.3853L19.3386 14.3875L16.2577 14.3882C14.1514 14.3882 12.4373 12.9141 12.3825 10.8459L12.3811 10.7438V7.278C12.3811 7.07647 12.5505 6.90841 12.7552 6.91793C16.0555 7.07259 18.753 9.25944 19.6921 12.2383Z" fill="#3485C4"/>
</svg>
